hosted/assets/icon/widgets/dark-mode/map.svg

<svg width="50" height="50" viewBox="0 0 50 50" fill="none" xmlns="http://www.w3.org/2000/svg">
<g clip-path="url(#clip0_2104_3514)">
<path d="M12.5 9L2 4L1 41L12.5 47L25 41L38 47L49 40.5V3L38 9L25.5 3L12.5 9Z" fill="#404258"/>
<path d="M0.875051 2C0.371145 2.0625 -0.00385479 2.49218 5.14614e-05 3V41C-0.00385479 41.3867 0.214895 41.7383 0.562551 41.9062L12.5626 47.9062C12.8399 48.0391 13.1602 48.0391 13.4376 47.9062L25.0313 42.0937L37.5938 47.9062C37.875 48.0312 38.1993 48.0195 38.4688 47.875L49.4688 41.875C49.793 41.7031 49.9961 41.3672 50 41V3C49.9961 2.65234 49.8125 2.32812 49.5118 2.14843C49.211 1.96875 48.8399 1.96093 48.5313 2.125L37.9688 7.875L25.4063 2.09375C25.1407 1.96875 24.8282 1.96875 24.5626 2.09375L13.0001 7.875L1.43755 2.09375C1.26177 2.00781 1.06646 1.97656 0.875051 2ZM26.0001 4.53125L37 9.625V45.4375L26.0001 40.375V4.53125ZM2.00005 4.625L12.0001 9.625V45.375L2.00005 40.375V4.625ZM24.0001 4.625V40.375L14.0001 45.375V9.625L24.0001 4.625ZM48 4.6875V40.4062L39 45.3125V9.59375L48 4.6875Z" fill="white"/>
<path fill-rule="evenodd" clip-rule="evenodd" d="M32.2683 30.2927L40.4634 18V13.9024L39.0976 9.12194L32.9512 5.02438L27.4878 6.39024L24.0732 9.12194L22.0244 15.9512C22.2521 17.3171 22.8439 20.0488 23.3903 20.0488C23.9366 20.0488 28.1708 26.878 30.2195 30.2927H32.2683ZM31.5853 19.3658C34.2255 19.3658 36.3658 17.2255 36.3658 14.5854C36.3658 11.9452 34.2255 9.80487 31.5853 9.80487C28.9451 9.80487 26.8048 11.9452 26.8048 14.5854C26.8048 17.2255 28.9451 19.3658 31.5853 19.3658Z" fill="#C89000"/>
<path fill-rule="evenodd" clip-rule="evenodd" d="M31.5985 9.22266C28.6667 9.22266 26.2735 11.619 26.2735 14.5683C26.2735 17.5153 28.6643 19.9413 31.5985 19.9413C34.5303 19.9413 36.9235 17.545 36.9235 14.5956C36.9235 11.6486 34.5327 9.22266 31.5985 9.22266ZM28.5385 14.5956C28.5385 12.9253 29.9144 11.5462 31.5985 11.5462C33.2862 11.5462 34.6585 12.9017 34.6585 14.5683C34.6585 16.2386 33.2826 17.6177 31.5985 17.6177C29.9108 17.6177 28.5385 16.2623 28.5385 14.5956Z" fill="white"/>
<path fill-rule="evenodd" clip-rule="evenodd" d="M31.5985 4C25.7841 4 21.0272 8.89275 21 14.8947L21 14.9004C21.027 17.1422 21.6736 19.3336 22.9438 21.193C22.9691 21.2449 23.0099 21.3234 23.0809 21.4025L30.3077 31.3588L30.3404 31.3926C30.6684 31.7933 31.131 32 31.5985 32C32.0809 32 32.5362 31.7544 32.8518 31.3976L32.8895 31.3585L40.0875 21.4051C40.1599 21.3299 40.2361 21.2479 40.306 21.1105C41.5227 19.2801 42.1707 17.1156 42.1707 14.8963C42.1707 8.92132 37.4402 4 31.5985 4ZM24.757 19.8261C23.7862 18.3608 23.2652 16.6675 23.265 14.9244C23.2909 10.1526 27.0511 6.32359 31.5985 6.32359C36.1715 6.32359 39.9058 10.179 39.9058 14.9235C39.9058 16.6787 39.4037 18.3541 38.424 19.8229C38.411 19.837 38.3945 19.8559 38.3796 19.8762C38.3674 19.8929 38.3468 19.9228 38.3292 19.9638L31.5986 29.271L24.8484 19.9284L24.8465 19.9263C24.8431 19.9208 24.8395 19.9152 24.8357 19.9097C24.8088 19.8704 24.7784 19.8429 24.757 19.8261Z" fill="white"/>
</g>
<defs>
<clipPath id="clip0_2104_3514">
<rect width="50" height="50" fill="white"/>
</clipPath>
</defs>
</svg>

<svg width="50" height="50" fill="none" xmlns="http://www.w3.org/2000/svg"><g clip-path="url(#clip0_2104_3514)"><path d="M12.5 9L2 4 1 41l11.5 6L25 41l13 6 11-6.5V3L38 9 25.5 3l-13 6z" fill="#404258"/><path d="M.875 2A.998.998 0 000 3v38a.993.993 0 00.563.906l12 6c.277.133.597.133.875 0l11.593-5.812 12.563 5.812a.998.998 0 00.875-.031l11-6c.324-.172.527-.508.531-.875V3a.997.997 0 00-1.469-.875L37.97 7.875 25.406 2.094a.996.996 0 00-.843 0L13 7.875 1.438 2.094A1.002 1.002 0 00.875 2zM26 4.531l11 5.094v35.813l-11-5.063V4.531zM2 4.625l10 5v35.75l-10-5V4.625zm22 0v35.75l-10 5V9.625l10-5zm24 .063v35.718l-9 4.907V9.593l9-4.905z" fill="#fff"/><path fill-rule="evenodd" clip-rule="evenodd" d="M32.268 30.293L40.463 18v-4.098l-1.365-4.78-6.147-4.098-5.463 1.366-3.415 2.732-2.049 6.83c.228 1.365.82 4.097 1.366 4.097.547 0 4.78 6.829 6.83 10.244h2.048zm-.683-10.927a4.78 4.78 0 100-9.561 4.78 4.78 0 000 9.56z" fill="#C89000"/><path fill-rule="evenodd" clip-rule="evenodd" d="M31.599 9.223c-2.932 0-5.326 2.396-5.326 5.345 0 2.947 2.391 5.373 5.326 5.373 2.931 0 5.324-2.396 5.324-5.345 0-2.947-2.39-5.373-5.325-5.373zm-3.06 5.373c0-1.67 1.375-3.05 3.06-3.05 1.687 0 3.06 1.356 3.06 3.022 0 1.67-1.376 3.05-3.06 3.05-1.688 0-3.06-1.356-3.06-3.022z" fill="#fff"/><path fill-rule="evenodd" clip-rule="evenodd" d="M31.599 4C25.784 4 21.027 8.893 21 14.895v.005c.027 2.242.674 4.434 1.944 6.293.025.052.066.13.137.21l7.227 9.956.032.034c.328.4.791.607 1.259.607.482 0 .937-.246 1.253-.602l.038-.04 7.197-9.953a1.1 1.1 0 00.219-.295 11.226 11.226 0 001.865-6.214C42.17 8.921 37.44 4 31.599 4zm-6.842 15.826a8.858 8.858 0 01-1.492-4.902c.026-4.771 3.786-8.6 8.334-8.6 4.573 0 8.307 3.855 8.307 8.6 0 1.755-.502 3.43-1.482 4.899a.445.445 0 00-.095.14l-6.73 9.308-6.75-9.343-.003-.002a.39.39 0 00-.089-.1z" fill="#fff"/></g><defs><clipPath id="clip0_2104_3514"><path fill="#fff" d="M0 0h50v50H0z"/></clipPath></defs></svg>
